Newaita-dark/apps/48/office-address-book.svg

<svg height="48pt" viewBox="0 0 48 48" width="48pt" xmlns="http://www.w3.org/2000/svg" xmlns:xlink="http://www.w3.org/1999/xlink"><linearGradient id="a" gradientUnits="userSpaceOnUse" x1="23.81478" x2="23.81478" y1="42.0509045" y2="44.03547050005"><stop offset="0" stop-opacity=".27451"/><stop offset="1" stop-opacity="0"/></linearGradient><linearGradient id="b"><stop offset="0" stop-opacity=".313726"/><stop offset=".222222" stop-opacity=".27451"/><stop offset="1" stop-opacity="0"/></linearGradient><radialGradient id="c" cx="450.908936" cy="189.579361" gradientTransform="matrix(.00000026 -.117199 -.210958 -.00000015 75.219128 95.392999)" gradientUnits="userSpaceOnUse" r="21.166656" xlink:href="#b"/><radialGradient id="d" cx="450.908936" cy="189.579361" gradientTransform="matrix(-.00000026 .117199 .210958 .00000015 -27.589573 -11.29122)" gradientUnits="userSpaceOnUse" r="21.166656" xlink:href="#b"/><radialGradient id="e" cx="450.908936" cy="189.579361" gradientTransform="matrix(-.00000026 -.117199 .210958 -.00000015 -27.589573 95.392999)" gradientUnits="userSpaceOnUse" r="21.166656" xlink:href="#b"/><radialGradient id="f" cx="450.908936" cy="189.579361" gradientTransform="matrix(.00000026 .117199 -.210958 .00000015 75.219126 -11.291219)" gradientUnits="userSpaceOnUse" r="21.166656" xlink:href="#b"/><linearGradient id="g" gradientUnits="userSpaceOnUse" x1="423.333344" x2="423.333344" y1="32.416664" y2="-105.166656"><stop offset="0" stop-color="#fff176"/><stop offset="1" stop-color="#fff59d"/></linearGradient><linearGradient id="h" gradientUnits="userSpaceOnUse" x1="412.75" x2="412.750031" y1="127.666658" y2="32.416657"><stop offset="0" stop-color="#42a5f5"/><stop offset="1" stop-color="#64b5f6"/></linearGradient><linearGradient id="i" gradientUnits="userSpaceOnUse" x1="412.75001" x2="412.750041" y1="191.166658" y2="95.916657"><stop offset="0" stop-color="#9575cd"/><stop offset="1" stop-color="#b39ddb"/></linearGradient><linearGradient id="j" gradientTransform="matrix(.113024 0 0 .326118 -8.78102 50.462022)" gradientUnits="userSpaceOnUse" x1="306.916656" x2="305.954559" y1="-25.791676" y2="-141.414581"><stop offset="0" stop-color="#a1887f"/><stop offset="1" stop-color="#bcaaa4"/></linearGradient><linearGradient id="k"><stop offset="0" stop-color="#424242"/><stop offset="1" stop-color="#616161"/></linearGradient><linearGradient id="l" gradientTransform="matrix(4.556143 0 0 13.146184 -353.972656 2034.180176)" gradientUnits="userSpaceOnUse" x1="165.484848" x2="165.484848" xlink:href="#k" y1="-25.791672" y2="-141.414581"/><linearGradient id="m" gradientUnits="userSpaceOnUse" x1="25.440745" x2="25.440745" xlink:href="#k" y1="29.62678380616" y2="13.75023829293"/><path d="m11.90625 42.050781h23.816406v1.984375h-23.816406zm0 0" fill="url(#a)"/><path d="m35.722656 42.050781h3.96875v-1.984375h-3.96875zm0 0" fill="url(#c)"/><path d="m11.90625 42.050781h-3.96875v1.984375h3.96875zm0 0" fill="url(#d)"/><path d="m11.90625 42.050781h-3.96875v-1.984375h3.96875zm0 0" fill="url(#e)"/><path d="m35.722656 42.050781h3.96875v1.984375h-3.96875zm0 0" fill="url(#f)"/><g stroke="#212121" stroke-linecap="round" stroke-width="3" transform="matrix(.093759 0 0 .093759 0 20.158175)"><path d="m423.334574-105.177154c5.832776 0 10.582322 4.749546 10.582322 10.582323v116.447213c0 5.832776-4.749546 10.582322-10.582322 10.582322-5.832777 0-10.582323-4.749546-10.582323-10.582322v-116.447213c0-5.832777 4.749546-10.582323 10.582323-10.582323zm0 0" fill="url(#g)"/><path d="m412.752251-31.100895h10.582323c5.832776 0 10.582322 4.749547 10.582322 10.582323v116.447213c0 5.832776-4.749546 10.582323-10.582322 10.582323h-10.582323c-5.832777 0-10.582323-4.749547-10.582323-10.582323v-116.447213c0-5.832776 4.749546-10.582323 10.582323-10.582323zm0 0" fill="#ef9a9a"/><path d="m412.752251 32.434704h10.582323c5.832776 0 10.582322 4.707884 10.582322 10.582323v74.07626c0 5.832776-4.749546 10.582322-10.582322 10.582322h-10.582323c-5.832777 0-10.582323-4.749546-10.582323-10.582322v-74.07626c0-5.874439 4.749546-10.582323 10.582323-10.582323zm0 0" fill="url(#h)"/><path d="m412.752251 95.928641h10.582323c5.832776 0 10.582322 4.707884 10.582322 10.582323v74.076259c0 5.832777-4.749546 10.582323-10.582322 10.582323h-10.582323c-5.832777 0-10.582323-4.749546-10.582323-10.582323v-74.076259c0-5.874439 4.749546-10.582323 10.582323-10.582323zm0 0" fill="url(#i)"/></g><path d="m9.921875 4.34375h27.785156c1.097657 0 1.984375.890625 1.984375 1.984375v33.738281c0 1.097656-.886718 1.984375-1.984375 1.984375h-27.785156c-1.09375 0-1.984375-.886719-1.984375-1.984375v-33.738281c0-1.09375.890625-1.984375 1.984375-1.984375zm0 0" fill="url(#j)"/><path d="m399.961827 175.101398c-44.247746 0-79.992366 35.74462-79.992366 79.992365v1360.027676c0 44.247745 35.74462 79.992365 79.992366 79.992365h119.988548v-1520.012406zm0 0" fill="url(#l)" stroke="#212121" stroke-linecap="round" stroke-width="11.338583" transform="scale(.0248071)"/><path d="m9.921875 42.050781c-1.097656 0-1.984375-.886719-1.984375-1.984375v-.25c0 1.101563.886719 1.988282 1.984375 1.988282h27.785156c1.097657 0 1.984375-.886719 1.984375-1.988282v.25c0 1.097656-.886718 1.984375-1.984375 1.984375zm0 0" fill-opacity=".196078"/><path d="m9.921875 4.34375c-1.097656 0-1.984375.886719-1.984375 1.984375v.25c0-1.101563.886719-1.988281 1.984375-1.984375h27.785156c1.097657-.003906 1.984375.882812 1.984375 1.984375v-.25c0-1.097656-.886718-1.984375-1.984375-1.984375zm0 0" fill="#e6e6e6" fill-opacity=".937239"/><path d="m9.921875 4.203125c-1.175781 0-2.125.949219-2.125 2.125v33.738281c0 1.175782.949219 2.125 2.125 2.125h27.785156c1.175781 0 2.125-.949218 2.125-2.125v-33.738281c0-1.175781-.949219-2.125-2.125-2.125zm0 .28125h27.785156c1.023438 0 1.84375.820313 1.84375 1.84375v33.738281c0 1.023438-.820312 1.84375-1.84375 1.84375h-27.785156c-1.023437 0-1.84375-.820312-1.84375-1.84375v-33.738281c0-1.023437.820313-1.84375 1.84375-1.84375zm0 0" fill="#212121"/><path d="m25.441406 13.75c-1.925781 0-3.472656 1.550781-3.472656 3.472656 0 1.925782 1.546875 3.472656 3.472656 3.472656 1.921875 0 3.472656-1.546874 3.472656-3.472656 0-1.921875-1.550781-3.472656-3.472656-3.472656zm-2.839844 7.464844c-1.855468.746094-3.113281 2.230468-3.113281 3.945312v3.472656c0 .550782.441407.992188.992188.992188h9.921875c.550781 0 .992187-.441406.992187-.992188v-3.472656c0-1.714844-1.257812-3.199218-3.113281-3.945312-.628906.886718-1.664062 1.464844-2.839844 1.464844-1.175781 0-2.210937-.578126-2.839844-1.464844zm0 0" fill="url(#m)"/><path d="m25.441406 13.75c-1.925781 0-3.472656 1.550781-3.472656 3.472656 0 .128906.007812.257813.019531.382813.191407-1.742188 1.65625-3.089844 3.453125-3.089844 1.792969 0 3.261719 1.347656 3.453125 3.089844.011719-.125.019531-.253907.019531-.382813 0-1.921875-1.550781-3.472656-3.472656-3.472656zm-2.839844 7.464844c-1.855468.746094-3.113281 2.230468-3.113281 3.945312v.765625c0-1.714843 1.257813-3.199219 3.113281-3.949219.628907.890626 1.664063 1.46875 2.839844 1.46875 1.175782 0 2.210938-.578124 2.839844-1.46875 1.855469.75 3.113281 2.234376 3.113281 3.949219v-.765625c0-1.714844-1.257812-3.199218-3.113281-3.945312-.628906.886718-1.664062 1.464844-2.839844 1.464844-1.175781 0-2.210937-.578126-2.839844-1.464844zm0 0" fill="#f7f7f7" fill-opacity=".392157"/><path d="m22.003906 17.492188c-.023437.160156-.035156.328124-.035156.496093 0 1.921875 1.546875 3.472657 3.472656 3.472657 1.921875 0 3.472656-1.550782 3.472656-3.472657 0-.167969-.011718-.335937-.035156-.496093-.238281 1.6875-1.683594 2.976562-3.4375 2.976562-1.757812 0-3.199218-1.289062-3.4375-2.976562zm-2.515625 10.914062v.992188c0 .550781.441407.992187.992188.992187h9.921875c.550781 0 .992187-.441406.992187-.992187v-.992188c0 .550781-.441406.992188-.992187.992188h-9.921875c-.550781 0-.992188-.441407-.992188-.992188zm0 0" fill-opacity=".235294"/><path d="m25.441406 13.609375c-2 0-3.613281 1.613281-3.613281 3.613281s1.613281 3.613282 3.613281 3.613282 3.613282-1.613282 3.613282-3.613282-1.613282-3.613281-3.613282-3.613281zm0 .28125c1.847656 0 3.332032 1.484375 3.332032 3.332031s-1.484376 3.332032-3.332032 3.332032-3.332031-1.484376-3.332031-3.332032 1.484375-3.332031 3.332031-3.332031zm-2.789062 7.148437-.101563.042969c-1.898437.765625-3.203125 2.292969-3.203125 4.078125v3.472656c0 .625.507813 1.132813 1.132813 1.132813h9.921875c.625 0 1.132812-.507813 1.132812-1.132813v-3.472656c0-1.785156-1.308594-3.3125-3.203125-4.078125l-.101562-.042969-.066407.09375c-.601562.851563-1.59375 1.40625-2.722656 1.40625s-2.121094-.554687-2.726562-1.40625zm5.667968.347657c1.761719.742187 2.933594 2.15625 2.933594 3.773437v3.472656c0 .476563-.378906.851563-.851562.851563h-9.921875c-.476563 0-.851563-.375-.851563-.851563v-3.472656c0-1.617187 1.167969-3.027344 2.933594-3.773437.65625.871093 1.699219 1.433593 2.878906 1.433593 1.179688 0 2.21875-.5625 2.878906-1.433593zm0 0" fill="#212121"/></svg>

<?xml version="1.0" encoding="UTF-8"?>
<svg xmlns="http://www.w3.org/2000/svg" xmlns:xlink="http://www.w3.org/1999/xlink" width="48pt" height="48pt" viewBox="0 0 48 48" version="1.1">
<defs>
<linearGradient id="linear0" gradientUnits="userSpaceOnUse" x1="254" y1="233.5" x2="254" y2="254.666672" gradientTransform="matrix(0.093759,0,0,0.093759,-0.00000572259,20.158178)">
<stop offset="0" style="stop-color:rgb(0%,0%,0%);stop-opacity:0.27451;"/>
<stop offset="1" style="stop-color:rgb(0%,0%,0%);stop-opacity:0;"/>
</linearGradient>
<radialGradient id="radial0" gradientUnits="userSpaceOnUse" cx="450.908936" cy="189.579361" fx="450.908936" fy="189.579361" r="21.166656" gradientTransform="matrix(0.000000261256,-0.117199,-0.210958,-0.000000152308,75.219128,95.392999)">
<stop offset="0" style="stop-color:rgb(0%,0%,0%);stop-opacity:0.313726;"/>
<stop offset="0.222222" style="stop-color:rgb(0%,0%,0%);stop-opacity:0.27451;"/>
<stop offset="1" style="stop-color:rgb(0%,0%,0%);stop-opacity:0;"/>
</radialGradient>
<radialGradient id="radial1" gradientUnits="userSpaceOnUse" cx="450.908936" cy="189.579361" fx="450.908936" fy="189.579361" r="21.166656" gradientTransform="matrix(-0.000000261256,0.117199,0.210958,0.000000152308,-27.589573,-11.29122)">
<stop offset="0" style="stop-color:rgb(0%,0%,0%);stop-opacity:0.313726;"/>
<stop offset="0.222222" style="stop-color:rgb(0%,0%,0%);stop-opacity:0.27451;"/>
<stop offset="1" style="stop-color:rgb(0%,0%,0%);stop-opacity:0;"/>
</radialGradient>
<radialGradient id="radial2" gradientUnits="userSpaceOnUse" cx="450.908936" cy="189.579361" fx="450.908936" fy="189.579361" r="21.166656" gradientTransform="matrix(-0.000000261256,-0.117199,0.210958,-0.000000152308,-27.589573,95.392999)">
<stop offset="0" style="stop-color:rgb(0%,0%,0%);stop-opacity:0.313726;"/>
<stop offset="0.222222" style="stop-color:rgb(0%,0%,0%);stop-opacity:0.27451;"/>
<stop offset="1" style="stop-color:rgb(0%,0%,0%);stop-opacity:0;"/>
</radialGradient>
<radialGradient id="radial3" gradientUnits="userSpaceOnUse" cx="450.908936" cy="189.579361" fx="450.908936" fy="189.579361" r="21.166656" gradientTransform="matrix(0.000000261256,0.117199,-0.210958,0.000000152308,75.219126,-11.291219)">
<stop offset="0" style="stop-color:rgb(0%,0%,0%);stop-opacity:0.313726;"/>
<stop offset="0.222222" style="stop-color:rgb(0%,0%,0%);stop-opacity:0.27451;"/>
<stop offset="1" style="stop-color:rgb(0%,0%,0%);stop-opacity:0;"/>
</radialGradient>
<linearGradient id="linear1" gradientUnits="userSpaceOnUse" x1="423.333344" y1="32.416664" x2="423.333344" y2="-105.166656" gradientTransform="matrix(1,0,0,1,0,0)">
<stop offset="0" style="stop-color:rgb(100%,94.509804%,46.27451%);stop-opacity:1;"/>
<stop offset="1" style="stop-color:rgb(100%,96.078432%,61.56863%);stop-opacity:1;"/>
</linearGradient>
<linearGradient id="linear2" gradientUnits="userSpaceOnUse" x1="423.333313" y1="-9.916655" x2="423.333344" y2="-105.166656" gradientTransform="matrix(1,0,0,1,-10.583313,137.583313)">
<stop offset="0" style="stop-color:rgb(25.882354%,64.705884%,96.078432%);stop-opacity:1;"/>
<stop offset="1" style="stop-color:rgb(39.215687%,70.980394%,96.470588%);stop-opacity:1;"/>
</linearGradient>
<linearGradient id="linear3" gradientUnits="userSpaceOnUse" x1="423.333313" y1="-9.916655" x2="423.333344" y2="-105.166656" gradientTransform="matrix(1,0,0,1,-10.583303,201.083313)">
<stop offset="0" style="stop-color:rgb(58.431375%,45.882353%,80.392158%);stop-opacity:1;"/>
<stop offset="1" style="stop-color:rgb(70.19608%,61.56863%,85.882354%);stop-opacity:1;"/>
</linearGradient>
<linearGradient id="linear4" gradientUnits="userSpaceOnUse" x1="306.916656" y1="-25.791676" x2="305.954559" y2="-141.414581" gradientTransform="matrix(0.113024,0,0,0.326118,-8.78102,50.462022)">
<stop offset="0" style="stop-color:rgb(63.137257%,53.333336%,49.803922%);stop-opacity:1;"/>
<stop offset="1" style="stop-color:rgb(73.725492%,66.666669%,64.313728%);stop-opacity:1;"/>
</linearGradient>
<linearGradient id="linear5" gradientUnits="userSpaceOnUse" x1="165.484848" y1="-25.791672" x2="165.484848" y2="-141.414581" gradientTransform="matrix(4.556143,0,0,13.146184,-353.972656,2034.180176)">
<stop offset="0" style="stop-color:rgb(25.882354%,25.882354%,25.882354%);stop-opacity:1;"/>
<stop offset="1" style="stop-color:rgb(38.039216%,38.039216%,38.039216%);stop-opacity:1;"/>
</linearGradient>
<linearGradient id="linear6" gradientUnits="userSpaceOnUse" x1="960" y1="1455.118164" x2="960" y2="815.118103" gradientTransform="matrix(0.0248071,0,0,0.0248071,1.625929,-6.470478)">
<stop offset="0" style="stop-color:rgb(25.882354%,25.882354%,25.882354%);stop-opacity:1;"/>
<stop offset="1" style="stop-color:rgb(38.039216%,38.039216%,38.039216%);stop-opacity:1;"/>
</linearGradient>
</defs>
<g id="surface1">
<path style=" stroke:none;fill-rule:nonzero;fill:url(#linear0);" d="M 11.90625 42.050781 L 35.722656 42.050781 L 35.722656 44.035156 L 11.90625 44.035156 Z M 11.90625 42.050781 "/>
<path style=" stroke:none;fill-rule:nonzero;fill:url(#radial0);" d="M 35.722656 42.050781 L 39.691406 42.050781 L 39.691406 40.066406 L 35.722656 40.066406 Z M 35.722656 42.050781 "/>
<path style=" stroke:none;fill-rule:nonzero;fill:url(#radial1);" d="M 11.90625 42.050781 L 7.9375 42.050781 L 7.9375 44.035156 L 11.90625 44.035156 Z M 11.90625 42.050781 "/>
<path style=" stroke:none;fill-rule:nonzero;fill:url(#radial2);" d="M 11.90625 42.050781 L 7.9375 42.050781 L 7.9375 40.066406 L 11.90625 40.066406 Z M 11.90625 42.050781 "/>
<path style=" stroke:none;fill-rule:nonzero;fill:url(#radial3);" d="M 35.722656 42.050781 L 39.691406 42.050781 L 39.691406 44.035156 L 35.722656 44.035156 Z M 35.722656 42.050781 "/>
<path style="fill-rule:nonzero;fill:url(#linear1);stroke-width:3;stroke-linecap:round;stroke-linejoin:miter;stroke:rgb(12.941177%,12.941177%,12.941177%);stroke-opacity:1;stroke-miterlimit:4;" d="M 423.334574 -105.177154 C 429.16735 -105.177154 433.916896 -100.427608 433.916896 -94.594831 L 433.916896 21.852382 C 433.916896 27.685158 429.16735 32.434704 423.334574 32.434704 C 417.501797 32.434704 412.752251 27.685158 412.752251 21.852382 L 412.752251 -94.594831 C 412.752251 -100.427608 417.501797 -105.177154 423.334574 -105.177154 Z M 423.334574 -105.177154 " transform="matrix(0.093759,0,0,0.093759,0,20.158175)"/>
<path style="fill-rule:nonzero;fill:rgb(93.725491%,60.392159%,60.392159%);fill-opacity:1;stroke-width:3;stroke-linecap:round;stroke-linejoin:miter;stroke:rgb(12.941177%,12.941177%,12.941177%);stroke-opacity:1;stroke-miterlimit:4;" d="M 412.752251 -31.100895 L 423.334574 -31.100895 C 429.16735 -31.100895 433.916896 -26.351348 433.916896 -20.518572 L 433.916896 95.928641 C 433.916896 101.761417 429.16735 106.510964 423.334574 106.510964 L 412.752251 106.510964 C 406.919474 106.510964 402.169928 101.761417 402.169928 95.928641 L 402.169928 -20.518572 C 402.169928 -26.351348 406.919474 -31.100895 412.752251 -31.100895 Z M 412.752251 -31.100895 " transform="matrix(0.093759,0,0,0.093759,0,20.158175)"/>
<path style="fill-rule:nonzero;fill:url(#linear2);stroke-width:3;stroke-linecap:round;stroke-linejoin:miter;stroke:rgb(12.941177%,12.941177%,12.941177%);stroke-opacity:1;stroke-miterlimit:4;" d="M 412.752251 32.434704 L 423.334574 32.434704 C 429.16735 32.434704 433.916896 37.142588 433.916896 43.017027 L 433.916896 117.093287 C 433.916896 122.926063 429.16735 127.675609 423.334574 127.675609 L 412.752251 127.675609 C 406.919474 127.675609 402.169928 122.926063 402.169928 117.093287 L 402.169928 43.017027 C 402.169928 37.142588 406.919474 32.434704 412.752251 32.434704 Z M 412.752251 32.434704 " transform="matrix(0.093759,0,0,0.093759,0,20.158175)"/>
<path style="fill-rule:nonzero;fill:url(#linear3);stroke-width:3;stroke-linecap:round;stroke-linejoin:miter;stroke:rgb(12.941177%,12.941177%,12.941177%);stroke-opacity:1;stroke-miterlimit:4;" d="M 412.752251 95.928641 L 423.334574 95.928641 C 429.16735 95.928641 433.916896 100.636525 433.916896 106.510964 L 433.916896 180.587223 C 433.916896 186.42 429.16735 191.169546 423.334574 191.169546 L 412.752251 191.169546 C 406.919474 191.169546 402.169928 186.42 402.169928 180.587223 L 402.169928 106.510964 C 402.169928 100.636525 406.919474 95.928641 412.752251 95.928641 Z M 412.752251 95.928641 " transform="matrix(0.093759,0,0,0.093759,0,20.158175)"/>
<path style=" stroke:none;fill-rule:nonzero;fill:url(#linear4);" d="M 9.921875 4.34375 L 37.707031 4.34375 C 38.804688 4.34375 39.691406 5.234375 39.691406 6.328125 L 39.691406 40.066406 C 39.691406 41.164062 38.804688 42.050781 37.707031 42.050781 L 9.921875 42.050781 C 8.828125 42.050781 7.9375 41.164062 7.9375 40.066406 L 7.9375 6.328125 C 7.9375 5.234375 8.828125 4.34375 9.921875 4.34375 Z M 9.921875 4.34375 "/>
<path style="fill-rule:nonzero;fill:url(#linear5);stroke-width:11.338583;stroke-linecap:round;stroke-linejoin:miter;stroke:rgb(12.941177%,12.941177%,12.941177%);stroke-opacity:1;stroke-miterlimit:4;" d="M 399.961827 175.101398 C 355.714081 175.101398 319.969461 210.846018 319.969461 255.093763 L 319.969461 1615.121439 C 319.969461 1659.369184 355.714081 1695.113804 399.961827 1695.113804 L 519.950375 1695.113804 L 519.950375 175.101398 Z M 399.961827 175.101398 " transform="matrix(0.0248071,0,0,0.0248071,0,0)"/>
<path style=" stroke:none;fill-rule:nonzero;fill:rgb(0%,0%,0%);fill-opacity:0.196078;" d="M 9.921875 42.050781 C 8.824219 42.050781 7.9375 41.164062 7.9375 40.066406 L 7.9375 39.816406 C 7.9375 40.917969 8.824219 41.804688 9.921875 41.804688 L 37.707031 41.804688 C 38.804688 41.804688 39.691406 40.917969 39.691406 39.816406 L 39.691406 40.066406 C 39.691406 41.164062 38.804688 42.050781 37.707031 42.050781 Z M 9.921875 42.050781 "/>
<path style=" stroke:none;fill-rule:nonzero;fill:rgb(90.196079%,90.196079%,90.196079%);fill-opacity:0.937239;" d="M 9.921875 4.34375 C 8.824219 4.34375 7.9375 5.230469 7.9375 6.328125 L 7.9375 6.578125 C 7.9375 5.476562 8.824219 4.589844 9.921875 4.59375 L 37.707031 4.59375 C 38.804688 4.589844 39.691406 5.476562 39.691406 6.578125 L 39.691406 6.328125 C 39.691406 5.230469 38.804688 4.34375 37.707031 4.34375 Z M 9.921875 4.34375 "/>
<path style=" stroke:none;fill-rule:nonzero;fill:rgb(12.941177%,12.941177%,12.941177%);fill-opacity:1;" d="M 9.921875 4.203125 C 8.746094 4.203125 7.796875 5.152344 7.796875 6.328125 L 7.796875 40.066406 C 7.796875 41.242188 8.746094 42.191406 9.921875 42.191406 L 37.707031 42.191406 C 38.882812 42.191406 39.832031 41.242188 39.832031 40.066406 L 39.832031 6.328125 C 39.832031 5.152344 38.882812 4.203125 37.707031 4.203125 Z M 9.921875 4.484375 L 37.707031 4.484375 C 38.730469 4.484375 39.550781 5.304688 39.550781 6.328125 L 39.550781 40.066406 C 39.550781 41.089844 38.730469 41.910156 37.707031 41.910156 L 9.921875 41.910156 C 8.898438 41.910156 8.078125 41.089844 8.078125 40.066406 L 8.078125 6.328125 C 8.078125 5.304688 8.898438 4.484375 9.921875 4.484375 Z M 9.921875 4.484375 "/>
<path style=" stroke:none;fill-rule:nonzero;fill:url(#linear6);" d="M 25.441406 13.75 C 23.515625 13.75 21.96875 15.300781 21.96875 17.222656 C 21.96875 19.148438 23.515625 20.695312 25.441406 20.695312 C 27.363281 20.695312 28.914062 19.148438 28.914062 17.222656 C 28.914062 15.300781 27.363281 13.75 25.441406 13.75 Z M 22.601562 21.214844 C 20.746094 21.960938 19.488281 23.445312 19.488281 25.160156 L 19.488281 28.632812 C 19.488281 29.183594 19.929688 29.625 20.480469 29.625 L 30.402344 29.625 C 30.953125 29.625 31.394531 29.183594 31.394531 28.632812 L 31.394531 25.160156 C 31.394531 23.445312 30.136719 21.960938 28.28125 21.214844 C 27.652344 22.101562 26.617188 22.679688 25.441406 22.679688 C 24.265625 22.679688 23.230469 22.101562 22.601562 21.214844 Z M 22.601562 21.214844 "/>
<path style=" stroke:none;fill-rule:nonzero;fill:rgb(96.862745%,96.862745%,96.862745%);fill-opacity:0.392157;" d="M 25.441406 13.75 C 23.515625 13.75 21.96875 15.300781 21.96875 17.222656 C 21.96875 17.351562 21.976562 17.480469 21.988281 17.605469 C 22.179688 15.863281 23.644531 14.515625 25.441406 14.515625 C 27.234375 14.515625 28.703125 15.863281 28.894531 17.605469 C 28.90625 17.480469 28.914062 17.351562 28.914062 17.222656 C 28.914062 15.300781 27.363281 13.75 25.441406 13.75 Z M 22.601562 21.214844 C 20.746094 21.960938 19.488281 23.445312 19.488281 25.160156 L 19.488281 25.925781 C 19.488281 24.210938 20.746094 22.726562 22.601562 21.976562 C 23.230469 22.867188 24.265625 23.445312 25.441406 23.445312 C 26.617188 23.445312 27.652344 22.867188 28.28125 21.976562 C 30.136719 22.726562 31.394531 24.210938 31.394531 25.925781 L 31.394531 25.160156 C 31.394531 23.445312 30.136719 21.960938 28.28125 21.214844 C 27.652344 22.101562 26.617188 22.679688 25.441406 22.679688 C 24.265625 22.679688 23.230469 22.101562 22.601562 21.214844 Z M 22.601562 21.214844 "/>
<path style=" stroke:none;fill-rule:nonzero;fill:rgb(0%,0%,0%);fill-opacity:0.235294;" d="M 22.003906 17.492188 C 21.980469 17.652344 21.96875 17.820312 21.96875 17.988281 C 21.96875 19.910156 23.515625 21.460938 25.441406 21.460938 C 27.363281 21.460938 28.914062 19.910156 28.914062 17.988281 C 28.914062 17.820312 28.902344 17.652344 28.878906 17.492188 C 28.640625 19.179688 27.195312 20.46875 25.441406 20.46875 C 23.683594 20.46875 22.242188 19.179688 22.003906 17.492188 Z M 19.488281 28.40625 L 19.488281 29.398438 C 19.488281 29.949219 19.929688 30.390625 20.480469 30.390625 L 30.402344 30.390625 C 30.953125 30.390625 31.394531 29.949219 31.394531 29.398438 L 31.394531 28.40625 C 31.394531 28.957031 30.953125 29.398438 30.402344 29.398438 L 20.480469 29.398438 C 19.929688 29.398438 19.488281 28.957031 19.488281 28.40625 Z M 19.488281 28.40625 "/>
<path style=" stroke:none;fill-rule:nonzero;fill:rgb(12.941177%,12.941177%,12.941177%);fill-opacity:1;" d="M 25.441406 13.609375 C 23.441406 13.609375 21.828125 15.222656 21.828125 17.222656 C 21.828125 19.222656 23.441406 20.835938 25.441406 20.835938 C 27.441406 20.835938 29.054688 19.222656 29.054688 17.222656 C 29.054688 15.222656 27.441406 13.609375 25.441406 13.609375 Z M 25.441406 13.890625 C 27.289062 13.890625 28.773438 15.375 28.773438 17.222656 C 28.773438 19.070312 27.289062 20.554688 25.441406 20.554688 C 23.59375 20.554688 22.109375 19.070312 22.109375 17.222656 C 22.109375 15.375 23.59375 13.890625 25.441406 13.890625 Z M 22.652344 21.039062 L 22.550781 21.082031 C 20.652344 21.847656 19.347656 23.375 19.347656 25.160156 L 19.347656 28.632812 C 19.347656 29.257812 19.855469 29.765625 20.480469 29.765625 L 30.402344 29.765625 C 31.027344 29.765625 31.535156 29.257812 31.535156 28.632812 L 31.535156 25.160156 C 31.535156 23.375 30.226562 21.847656 28.332031 21.082031 L 28.230469 21.039062 L 28.164062 21.132812 C 27.5625 21.984375 26.570312 22.539062 25.441406 22.539062 C 24.3125 22.539062 23.320312 21.984375 22.714844 21.132812 Z M 28.320312 21.386719 C 30.082031 22.128906 31.253906 23.542969 31.253906 25.160156 L 31.253906 28.632812 C 31.253906 29.109375 30.875 29.484375 30.402344 29.484375 L 20.480469 29.484375 C 20.003906 29.484375 19.628906 29.109375 19.628906 28.632812 L 19.628906 25.160156 C 19.628906 23.542969 20.796875 22.132812 22.5625 21.386719 C 23.21875 22.257812 24.261719 22.820312 25.441406 22.820312 C 26.621094 22.820312 27.660156 22.257812 28.320312 21.386719 Z M 28.320312 21.386719 "/>
</g>
</svg>
